X:33
T:GB/7a/33B Salisbury Plain Version 3 of 3 
%%VWML:GB-7a-33B-0
F:http://www.vwml.org/record/GB/7a/33B
C:Transcribed by Simon Furey and Lewis Jones
L:1/4
M:4/4
I:linebreak $
K:Ddor
F/G/ | A F E D | A2 G/F/ E | D2 A3/2 B/ | c A F A/B/ | c2 d c | A2 A B |$ c A F A |"^(a)" c2 d E | F E D C | c c d c | A2 G F | D3 |]$"^(a) var." c2 d D |

